Modules/BetterCms.Module.Root/Scss/assets/icons/download.svg

<svg xmlns="http://www.w3.org/2000/svg" width="19" height="18" viewBox="0 0 19 18"><path d="m9.246 12.316c-.173 0-.487 0-.638-.253l-3.542-3.707c-.318-.334-.318-.876 0-1.21.153-.16.358-.248.578-.248.22 0 .425.088.578.249l2.189 2.29v-8.564c0-.53.328-.873.835-.873.507 0 .835.343.835.873v8.409l2.04-2.136c.153-.16.359-.248.578-.248.22 0 .425.088.579.249.318.333.318.875 0 1.209l-3.482 3.644c-.005.046-.02.091-.043.131-.109.185-.34.185-.507.185m-7.514 5.684c-.957 0-1.732-.761-1.732-1.699v-3.993c0-.447.356-.829.812-.848.556-.024.92.315.92.848v3.992h15.535v-3.992c0-.447.358-.829.814-.848.556-.023.919.315.919.848v3.992c0 .939-.776 1.7-1.733 1.7h-15.535" fill="#d2cfcf" fill-rule="evenodd"/></svg>

<svg xmlns="http://www.w3.org/2000/svg" xmlns:xlink="http://www.w3.org/1999/xlink" preserveAspectRatio="xMidYMid" width="19" height="18" viewBox="0 0 19 18">
  <defs>
    <style>
      .cls-1 {
        fill: #d2cfcf;
        fill-rule: evenodd;
      }
    </style>
  </defs>
  <path d="M9.246,12.316 C9.073,12.316 8.759,12.316 8.608,12.063 L5.066,8.356 C4.748,8.022 4.748,7.480 5.066,7.146 C5.219,6.986 5.424,6.898 5.644,6.898 C5.864,6.898 6.069,6.986 6.222,7.147 L8.411,9.437 L8.411,0.873 C8.411,0.343 8.739,-0.000 9.246,-0.000 C9.753,-0.000 10.081,0.343 10.081,0.873 L10.081,9.282 L12.121,7.146 C12.274,6.986 12.480,6.898 12.699,6.898 C12.919,6.898 13.124,6.986 13.278,7.147 C13.596,7.480 13.596,8.022 13.278,8.356 L9.796,12.000 C9.791,12.046 9.776,12.091 9.753,12.131 C9.644,12.316 9.413,12.316 9.246,12.316 ZM1.732,18.000 C0.775,18.000 -0.000,17.239 -0.000,16.301 L-0.000,12.308 C-0.000,11.861 0.356,11.479 0.812,11.460 C1.368,11.436 1.732,11.775 1.732,12.308 L1.732,16.300 L17.267,16.300 L17.267,12.308 C17.267,11.861 17.625,11.479 18.081,11.460 C18.637,11.437 19.000,11.775 19.000,12.308 L19.000,16.300 C19.000,17.239 18.224,18.000 17.267,18.000 L1.732,18.000 Z" class="cls-1"/>
</svg>
